img/footer-icon4.svg

<svg width="229" height="60" viewBox="0 0 229 60" fill="none" xmlns="http://www.w3.org/2000/svg">
<g clip-path="url(#clip0_1_3212)">
<g clip-path="url(#clip1_1_3212)">
<g clip-path="url(#clip2_1_3212)">
<path d="M18.9854 43.1206C11.8813 43.1206 1.46087 30.9552 1.02255 30.4425L0.650391 30.0041L1.02255 29.5658C1.46087 29.0448 11.8896 16.8877 18.9854 16.8877C22.1529 16.8877 25.1632 18.1695 27.4623 20.4934C29.9682 23.0324 31.3824 26.5059 31.3328 30.0124C31.2252 37.4804 25.9241 43.1206 18.9854 43.1206ZM2.44502 30.0041C4.38024 32.1875 13.2211 41.7643 18.9854 41.7643C25.1549 41.7643 29.8772 36.703 29.9682 29.9959C30.0095 26.8946 28.7111 23.7023 26.4947 21.4528C24.4602 19.3852 21.789 18.2522 18.9854 18.2522C13.2211 18.244 4.38024 27.8126 2.44502 30.0041Z" fill="white"/>
<path d="M30.6556 59.9998L30.2172 59.6276C29.6962 59.1893 17.5391 48.7606 17.5391 41.6648C17.5391 38.4974 18.8209 35.487 21.1449 33.1962C23.6838 30.6903 27.1407 29.3257 30.6638 29.3257C38.1401 29.4332 43.7721 34.7344 43.7721 41.6648C43.7721 48.7689 31.6149 59.1893 31.0939 59.6276L30.6556 59.9998ZM30.4902 30.6738C27.4385 30.6738 24.3041 31.9639 22.0877 34.1555C20.0201 36.19 18.8871 38.8612 18.8871 41.6648C18.8871 47.4291 28.464 56.27 30.6473 58.2135C32.8306 56.27 42.4075 47.4291 42.4075 41.6648C42.4075 35.4953 37.3461 30.773 30.639 30.682C30.5977 30.6738 30.5398 30.6738 30.4902 30.6738Z" fill="white"/>
<path d="M42.3169 43.1206C39.1495 43.1206 36.1391 41.8388 33.84 39.5148C31.3341 36.9759 29.9282 33.5024 29.9696 29.9959C30.0771 22.5279 35.3783 16.8877 42.3087 16.8877C49.4127 16.8877 59.8332 29.0448 60.2715 29.5658L60.6436 30.0041L60.2715 30.4425C59.8414 30.9552 49.4127 43.1206 42.3169 43.1206ZM42.3169 18.244C36.1474 18.244 31.4251 23.3053 31.3341 30.0124C31.2928 33.1137 32.5912 36.306 34.8076 38.5638C36.8421 40.6313 39.5133 41.7643 42.3169 41.7643C48.0812 41.7643 56.9221 32.1875 58.8655 30.0041C56.9221 27.8126 48.0812 18.244 42.3169 18.244Z" fill="white"/>
<path d="M30.821 30.6823C30.7631 30.6823 30.7052 30.6823 30.6473 30.6823C23.1711 30.5748 17.5391 25.2737 17.5391 18.3432C17.5391 11.2392 29.6962 0.818747 30.2172 0.380428L30.6556 0L31.0939 0.372158C31.6149 0.810477 43.7721 11.2392 43.7721 18.335C43.7721 21.5025 42.4902 24.5128 40.1663 26.8036C37.6604 29.2764 34.2696 30.6823 30.821 30.6823ZM30.6556 1.79463C28.464 3.72985 18.8871 12.5707 18.8871 18.335C18.8871 24.5045 23.9485 29.2268 30.6556 29.3178C33.79 29.4005 36.9492 28.0607 39.2069 25.8443C41.2745 23.8098 42.4075 21.1386 42.4075 18.335C42.4158 12.5707 32.8389 3.72985 30.6556 1.79463Z" fill="white"/>
<path d="M85.9833 21.4499C85.9833 20.8499 85.9333 20.4099 85.8333 20.1299C85.7333 19.8299 85.4233 19.6799 84.9033 19.6799V19.4999H89.4633V19.6799C88.9433 19.6799 88.6333 19.8299 88.5333 20.1299C88.4333 20.4099 88.3833 20.8499 88.3833 21.4499V27.0599H98.2533V21.4499C98.2533 20.8499 98.2033 20.4099 98.1033 20.1299C98.0033 19.8299 97.6933 19.6799 97.1733 19.6799V19.4999H101.734V19.6799C101.214 19.6799 100.904 19.8299 100.804 20.1299C100.704 20.4099 100.654 20.8499 100.654 21.4499V38.5499C100.654 39.1499 100.704 39.5999 100.804 39.8999C100.904 40.1799 101.214 40.3199 101.734 40.3199V40.4999H97.1733V40.3199C97.6933 40.3199 98.0033 40.1799 98.1033 39.8999C98.2033 39.5999 98.2533 39.1499 98.2533 38.5499V27.7199H88.3833V38.5499C88.3833 39.1499 88.4333 39.5999 88.5333 39.8999C88.6333 40.1799 88.9433 40.3199 89.4633 40.3199V40.4999H84.9033V40.3199C85.4233 40.3199 85.7333 40.1799 85.8333 39.8999C85.9333 39.5999 85.9833 39.1499 85.9833 38.5499V21.4499ZM111.297 24.6599C113.077 24.6599 114.377 25.1599 115.197 26.1599C116.017 27.1599 116.427 28.7499 116.427 30.9299V38.6999C116.427 39.3399 116.497 39.7699 116.637 39.9899C116.777 40.2099 117.017 40.3199 117.357 40.3199V40.4999H114.237V36.5399C113.537 37.8199 112.667 38.8299 111.627 39.5699C110.587 40.3099 109.477 40.6799 108.297 40.6799C107.677 40.6799 107.107 40.5799 106.587 40.3799C106.067 40.1599 105.607 39.8699 105.207 39.5099C104.827 39.1299 104.527 38.6899 104.307 38.1899C104.087 37.6899 103.977 37.1499 103.977 36.5699C103.977 35.0299 104.807 33.6699 106.467 32.4899C108.127 31.2899 110.677 30.4099 114.117 29.8499C114.057 28.2699 113.747 27.1099 113.187 26.3699C112.627 25.6299 111.787 25.2599 110.667 25.2599C109.527 25.2599 108.487 25.6299 107.547 26.3699C106.627 27.1099 105.877 28.1699 105.297 29.5499H105.117V27.1499C105.817 26.3699 106.707 25.7599 107.787 25.3199C108.887 24.8799 110.057 24.6599 111.297 24.6599ZM114.117 30.5099C111.457 30.9699 109.497 31.7299 108.237 32.7899C106.997 33.8299 106.377 35.0599 106.377 36.4799C106.377 37.4399 106.617 38.1899 107.097 38.7299C107.597 39.2499 108.257 39.5099 109.077 39.5099C110.057 39.5099 110.997 39.1499 111.897 38.4299C112.797 37.7099 113.537 36.7299 114.117 35.4899V30.5099ZM118.801 24.8399H120.301V22.3199L122.611 21.9299V24.8399H128.461V25.4999H122.611V36.2999C122.611 37.4799 122.781 38.3399 123.121 38.8799C123.461 39.3999 124.001 39.6599 124.741 39.6599C125.401 39.6599 126.131 39.4599 126.931 39.0599C127.731 38.6599 128.421 38.0799 129.001 37.3199L129.151 37.4099C128.391 38.4099 127.521 39.2099 126.541 39.8099C125.561 40.3899 124.611 40.6799 123.691 40.6799C122.631 40.6799 121.801 40.2899 121.201 39.5099C120.601 38.7299 120.301 37.6499 120.301 36.2699V25.4999H118.801V24.8399ZM131.005 20.6999C131.005 20.0799 130.935 19.6599 130.795 19.4399C130.675 19.1999 130.435 19.0799 130.075 19.0799V18.8999H133.195V29.9099C133.515 29.0899 133.915 28.3599 134.395 27.7199C134.875 27.0799 135.395 26.5299 135.955 26.0699C136.535 25.6099 137.125 25.2599 137.725 25.0199C138.345 24.7799 138.945 24.6599 139.525 24.6599C140.105 24.6599 140.645 24.7799 141.145 25.0199C141.665 25.2599 142.115 25.6399 142.495 26.1599C142.875 26.6599 143.175 27.3099 143.395 28.1099C143.635 28.9099 143.755 29.8599 143.755 30.9599V38.6999C143.755 39.3199 143.825 39.7499 143.965 39.9899C144.105 40.2099 144.345 40.3199 144.685 40.3199V40.4999H140.425V40.3199C140.785 40.3199 141.025 40.2099 141.145 39.9899C141.285 39.7499 141.355 39.3299 141.355 38.7299V30.6599C141.355 29.7999 141.285 29.0699 141.145 28.4699C141.005 27.8499 140.805 27.3499 140.545 26.9699C140.305 26.5899 140.015 26.3199 139.675 26.1599C139.335 25.9799 138.975 25.8899 138.595 25.8899C138.095 25.8899 137.575 26.0299 137.035 26.3099C136.515 26.5699 136.015 26.9399 135.535 27.4199C135.055 27.8999 134.615 28.4799 134.215 29.1599C133.835 29.8199 133.535 30.5399 133.315 31.3199V38.6999C133.315 39.3199 133.385 39.7499 133.525 39.9899C133.665 40.2099 133.905 40.3199 134.245 40.3199V40.4999H130.075V40.3199C130.435 40.3199 130.675 40.2099 130.795 39.9899C130.935 39.7499 131.005 39.3199 131.005 38.6999V20.6999ZM154.041 24.6599C155.821 24.6599 157.121 25.1599 157.941 26.1599C158.761 27.1599 159.171 28.7499 159.171 30.9299V38.6999C159.171 39.3399 159.241 39.7699 159.381 39.9899C159.521 40.2099 159.761 40.3199 160.101 40.3199V40.4999H156.981V36.5399C156.281 37.8199 155.411 38.8299 154.371 39.5699C153.331 40.3099 152.221 40.6799 151.041 40.6799C150.421 40.6799 149.851 40.5799 149.331 40.3799C148.811 40.1599 148.351 39.8699 147.951 39.5099C147.571 39.1299 147.271 38.6899 147.051 38.1899C146.831 37.6899 146.721 37.1499 146.721 36.5699C146.721 35.0299 147.551 33.6699 149.211 32.4899C150.871 31.2899 153.421 30.4099 156.861 29.8499C156.801 28.2699 156.491 27.1099 155.931 26.3699C155.371 25.6299 154.531 25.2599 153.411 25.2599C152.271 25.2599 151.231 25.6299 150.291 26.3699C149.371 27.1099 148.621 28.1699 148.041 29.5499H147.861V27.1499C148.561 26.3699 149.451 25.7599 150.531 25.3199C151.631 24.8799 152.801 24.6599 154.041 24.6599ZM156.861 30.5099C154.201 30.9699 152.241 31.7299 150.981 32.7899C149.741 33.8299 149.121 35.0599 149.121 36.4799C149.121 37.4399 149.361 38.1899 149.841 38.7299C150.341 39.2499 151.001 39.5099 151.821 39.5099C152.801 39.5099 153.741 39.1499 154.641 38.4299C155.541 37.7099 156.281 36.7299 156.861 35.4899V30.5099ZM167.311 44.1299C167.631 44.1899 167.971 44.2499 168.331 44.3099C168.691 44.3699 169.071 44.3999 169.471 44.3999C170.171 44.3999 170.831 44.2499 171.451 43.9499C172.091 43.6499 172.591 43.0499 172.951 42.1499L173.701 40.2299L168.361 26.8499C168.121 26.2499 167.891 25.7999 167.671 25.4999C167.451 25.1799 167.121 25.0199 166.681 25.0199V24.8399H171.541V25.0199C171.001 25.0199 170.701 25.1999 170.641 25.5599C170.601 25.8999 170.691 26.3299 170.911 26.8499L174.961 37.1099L178.981 26.8799C179.081 26.6199 179.161 26.3799 179.221 26.1599C179.281 25.9399 179.301 25.7499 179.281 25.5899C179.281 25.4099 179.221 25.2699 179.101 25.1699C179.001 25.0699 178.831 25.0199 178.591 25.0199V24.8399H181.201V25.0199C180.881 25.0199 180.611 25.2099 180.391 25.5899C180.171 25.9499 179.941 26.4199 179.701 26.9999L173.671 42.2999C173.351 43.1399 172.941 43.8299 172.441 44.3699C171.941 44.9099 171.401 45.3299 170.821 45.6299C170.261 45.9299 169.671 46.1399 169.051 46.2599C168.451 46.3799 167.871 46.4399 167.311 46.4399V44.1299ZM188.842 24.6599C189.862 24.6599 190.812 24.8699 191.692 25.2899C192.572 25.6899 193.332 26.2499 193.972 26.9699C194.632 27.6899 195.142 28.5499 195.502 29.5499C195.862 30.5299 196.042 31.5999 196.042 32.7599C196.042 33.8999 195.862 34.9599 195.502 35.9399C195.142 36.8999 194.642 37.7399 194.002 38.4599C193.382 39.1599 192.632 39.7099 191.752 40.1099C190.892 40.4899 189.942 40.6799 188.902 40.6799C187.862 40.6799 186.892 40.4799 185.992 40.0799C185.112 39.6799 184.352 39.1299 183.712 38.4299C183.072 37.7099 182.572 36.8699 182.212 35.9099C181.852 34.9299 181.672 33.8599 181.672 32.6999C181.672 31.5399 181.852 30.4699 182.212 29.4899C182.572 28.5099 183.072 27.6599 183.712 26.9399C184.352 26.2199 185.102 25.6599 185.962 25.2599C186.842 24.8599 187.802 24.6599 188.842 24.6599ZM188.872 25.2299C188.132 25.2299 187.462 25.4099 186.862 25.7699C186.282 26.1099 185.782 26.5999 185.362 27.2399C184.942 27.8799 184.622 28.6599 184.402 29.5799C184.182 30.4799 184.072 31.4999 184.072 32.6399C184.072 33.7799 184.182 34.8099 184.402 35.7299C184.642 36.6499 184.972 37.4399 185.392 38.0999C185.812 38.7399 186.312 39.2399 186.892 39.5999C187.492 39.9399 188.162 40.1099 188.902 40.1099C189.622 40.1099 190.272 39.9399 190.852 39.5999C191.452 39.2399 191.952 38.7399 192.352 38.0999C192.772 37.4599 193.092 36.6899 193.312 35.7899C193.532 34.8699 193.642 33.8399 193.642 32.6999C193.642 31.5599 193.532 30.5299 193.312 29.6099C193.092 28.6899 192.772 27.9099 192.352 27.2699C191.932 26.6099 191.422 26.1099 190.822 25.7699C190.242 25.4099 189.592 25.2299 188.872 25.2299ZM204.777 24.6599C205.457 24.6599 206.107 24.7499 206.727 24.9299C207.347 25.0899 207.917 25.3299 208.437 25.6499L211.977 24.6299L212.037 24.6899V26.3099H211.977L208.767 25.8599C209.467 26.3399 210.017 26.9199 210.417 27.5999C210.837 28.2799 211.047 29.0399 211.047 29.8799C211.047 30.5999 210.887 31.2599 210.567 31.8599C210.247 32.4599 209.807 32.9899 209.247 33.4499C208.687 33.8899 208.037 34.2399 207.297 34.4999C206.557 34.7399 205.767 34.8599 204.927 34.8599C203.467 34.8599 202.177 34.4999 201.057 33.7799C200.697 34.0799 200.407 34.3999 200.187 34.7399C199.967 35.0599 199.857 35.3599 199.857 35.6399C199.857 36.4399 200.947 36.8999 203.127 37.0199L207.657 37.2899C210.577 37.4699 212.037 38.6399 212.037 40.7999C212.037 41.6399 211.827 42.4099 211.407 43.1099C211.007 43.8299 210.447 44.4499 209.727 44.9699C209.027 45.4899 208.187 45.8899 207.207 46.1699C206.247 46.4699 205.197 46.6199 204.057 46.6199C203.157 46.6199 202.317 46.5199 201.537 46.3199C200.757 46.1399 200.087 45.8699 199.527 45.5099C198.967 45.1499 198.527 44.7199 198.207 44.2199C197.887 43.7199 197.727 43.1599 197.727 42.5399C197.727 41.0599 198.657 39.8399 200.517 38.8799C199.837 38.6599 199.297 38.3499 198.897 37.9499C198.497 37.5499 198.297 37.0799 198.297 36.5399C198.297 36.0599 198.477 35.5699 198.837 35.0699C199.217 34.5699 199.817 34.0399 200.637 33.4799C200.037 33.0199 199.557 32.4699 199.197 31.8299C198.857 31.1899 198.687 30.4899 198.687 29.7299C198.687 29.0099 198.847 28.3399 199.167 27.7199C199.487 27.0999 199.927 26.5699 200.487 26.1299C201.047 25.6699 201.687 25.3099 202.407 25.0499C203.147 24.7899 203.937 24.6599 204.777 24.6599ZM204.837 25.2299C203.677 25.2299 202.737 25.6299 202.017 26.4299C201.317 27.2099 200.967 28.3199 200.967 29.7599C200.967 31.2199 201.327 32.3399 202.047 33.1199C202.767 33.8999 203.717 34.2899 204.897 34.2899C206.077 34.2899 207.017 33.9099 207.717 33.1499C208.417 32.3899 208.767 31.2899 208.767 29.8499C208.767 28.3899 208.407 27.2599 207.687 26.4599C206.967 25.6399 206.017 25.2299 204.837 25.2299ZM201.087 39.0299C199.887 39.8899 199.287 40.9099 199.287 42.0899C199.287 42.6699 199.427 43.1999 199.707 43.6799C199.987 44.1799 200.367 44.5999 200.847 44.9399C201.327 45.2799 201.887 45.5399 202.527 45.7199C203.187 45.9199 203.887 46.0199 204.627 46.0199C205.447 46.0199 206.207 45.9099 206.907 45.6899C207.627 45.4699 208.247 45.1599 208.767 44.7599C209.307 44.3799 209.727 43.9299 210.027 43.4099C210.347 42.8899 210.507 42.3399 210.507 41.7599C210.507 41.0599 210.277 40.5299 209.817 40.1699C209.357 39.8099 208.627 39.5999 207.627 39.5399L202.317 39.2099C201.857 39.1699 201.447 39.1099 201.087 39.0299ZM221.365 24.6599C223.145 24.6599 224.445 25.1599 225.265 26.1599C226.085 27.1599 226.495 28.7499 226.495 30.9299V38.6999C226.495 39.3399 226.565 39.7699 226.705 39.9899C226.845 40.2099 227.085 40.3199 227.425 40.3199V40.4999H224.305V36.5399C223.605 37.8199 222.735 38.8299 221.695 39.5699C220.655 40.3099 219.545 40.6799 218.365 40.6799C217.745 40.6799 217.175 40.5799 216.655 40.3799C216.135 40.1599 215.675 39.8699 215.275 39.5099C214.895 39.1299 214.595 38.6899 214.375 38.1899C214.155 37.6899 214.045 37.1499 214.045 36.5699C214.045 35.0299 214.875 33.6699 216.535 32.4899C218.195 31.2899 220.745 30.4099 224.185 29.8499C224.125 28.2699 223.815 27.1099 223.255 26.3699C222.695 25.6299 221.855 25.2599 220.735 25.2599C219.595 25.2599 218.555 25.6299 217.615 26.3699C216.695 27.1099 215.945 28.1699 215.365 29.5499H215.185V27.1499C215.885 26.3699 216.775 25.7599 217.855 25.3199C218.955 24.8799 220.125 24.6599 221.365 24.6599ZM224.185 30.5099C221.525 30.9699 219.565 31.7299 218.305 32.7899C217.065 33.8299 216.445 35.0599 216.445 36.4799C216.445 37.4399 216.685 38.1899 217.165 38.7299C217.665 39.2499 218.325 39.5099 219.145 39.5099C220.125 39.5099 221.065 39.1499 221.965 38.4299C222.865 37.7099 223.605 36.7299 224.185 35.4899V30.5099Z" fill="white"/>
</g>
</g>
</g>
<defs>
<clipPath id="clip0_1_3212">
<rect width="228" height="60" fill="white" transform="translate(0.650391)"/>
</clipPath>
<clipPath id="clip1_1_3212">
<rect width="228" height="60" fill="white" transform="translate(0.650391)"/>
</clipPath>
<clipPath id="clip2_1_3212">
<rect width="228" height="60" fill="white" transform="translate(0.650391)"/>
</clipPath>
</defs>
</svg>

<svg xmlns="http://www.w3.org/2000/svg" width="229" height="60" fill="none"><g clip-path="url(#a)"><g clip-path="url(#b)"><g fill="#fff" clip-path="url(#c)"><path d="M18.985 43.12c-7.104 0-17.524-12.165-17.962-12.677l-.373-.439.373-.438c.438-.521 10.867-12.678 17.962-12.678 3.168 0 6.178 1.281 8.477 3.605 2.506 2.54 3.92 6.013 3.87 9.52-.107 7.467-5.408 13.108-12.347 13.108M2.445 30.005c1.935 2.183 10.776 11.76 16.54 11.76 6.17 0 10.892-5.061 10.983-11.768.041-3.101-1.257-6.294-3.473-8.543-2.035-2.068-4.706-3.2-7.51-3.2-5.764-.009-14.605 9.56-16.54 11.751"/><path d="m30.656 60-.439-.372c-.52-.439-12.678-10.867-12.678-17.963 0-3.168 1.282-6.178 3.606-8.469 2.539-2.506 5.996-3.87 9.519-3.87 7.476.107 13.108 5.408 13.108 12.339 0 7.104-12.157 17.524-12.678 17.963zm-.166-29.326c-3.051 0-6.186 1.29-8.402 3.482-2.068 2.034-3.2 4.705-3.2 7.509 0 5.764 9.576 14.605 11.76 16.549 2.183-1.944 11.76-10.785 11.76-16.55 0-6.169-5.062-10.891-11.769-10.982-.041-.008-.1-.008-.149-.008"/><path d="M42.317 43.12c-3.167 0-6.178-1.281-8.477-3.605-2.506-2.54-3.912-6.013-3.87-9.52.107-7.467 5.408-13.107 12.339-13.107 7.104 0 17.524 12.157 17.963 12.678l.372.438-.372.438c-.43.513-10.86 12.679-17.955 12.679m0-24.876c-6.17 0-10.892 5.061-10.983 11.768-.041 3.102 1.257 6.294 3.474 8.552 2.034 2.067 4.705 3.2 7.509 3.2 5.764 0 14.605-9.577 16.548-11.76-1.943-2.191-10.784-11.76-16.548-11.76"/><path d="M30.821 30.682h-.174c-7.476-.107-13.108-5.408-13.108-12.339C17.54 11.24 29.696.82 30.217.38l.439-.38.438.372c.52.438 12.678 10.867 12.678 17.963 0 3.168-1.282 6.178-3.606 8.469-2.506 2.472-5.896 3.878-9.345 3.878m-.165-28.887C28.464 3.73 18.887 12.57 18.887 18.335c0 6.17 5.061 10.892 11.769 10.983 3.134.082 6.293-1.257 8.55-3.474 2.069-2.034 3.201-4.705 3.201-7.509.009-5.764-9.568-14.605-11.751-16.54M85.983 21.45q0-.9-.15-1.32-.15-.45-.93-.45v-.18h4.56v.18q-.78 0-.93.45-.15.42-.15 1.32v5.61h9.87v-5.61q0-.9-.15-1.32-.15-.45-.93-.45v-.18h4.561v.18q-.78 0-.93.45-.15.42-.15 1.32v17.1q0 .9.15 1.35.15.42.93.42v.18h-4.56v-.18q.78 0 .93-.42.15-.45.15-1.35V27.72h-9.87v10.83q0 .9.15 1.35.15.42.93.42v.18h-4.56v-.18q.78 0 .93-.42.15-.45.15-1.35zm25.314 3.21q2.67 0 3.9 1.5t1.23 4.77v7.77q0 .96.21 1.29t.72.33v.18h-3.12v-3.96q-1.05 1.92-2.61 3.03t-3.33 1.11q-.93 0-1.71-.3-.78-.33-1.38-.87-.57-.57-.9-1.32t-.33-1.62q0-2.31 2.49-4.08 2.49-1.8 7.65-2.64-.09-2.37-.93-3.48t-2.52-1.11q-1.71 0-3.12 1.11-1.38 1.11-2.25 3.18h-.18v-2.4q1.05-1.17 2.67-1.83 1.65-.66 3.51-.66m2.82 5.85q-3.99.69-5.88 2.28-1.86 1.56-1.86 3.69 0 1.44.72 2.25.75.78 1.98.78 1.47 0 2.82-1.08t2.22-2.94zm4.684-5.67h1.5v-2.52l2.31-.39v2.91h5.85v.66h-5.85v10.8q0 1.77.51 2.58.51.78 1.62.78.99 0 2.19-.6t2.07-1.74l.15.09q-1.14 1.5-2.61 2.4-1.47.87-2.85.87-1.59 0-2.49-1.17t-.9-3.24V25.5h-1.5zm12.204-4.14q0-.93-.21-1.26-.18-.36-.72-.36v-.18h3.12v11.01q.48-1.23 1.2-2.19t1.56-1.65q.87-.69 1.77-1.05.93-.36 1.8-.36t1.62.36q.78.36 1.35 1.14.57.75.9 1.95.36 1.2.36 2.85v7.74q0 .93.21 1.29.21.33.72.33v.18h-4.26v-.18q.54 0 .72-.33.21-.36.21-1.26v-8.07q0-1.29-.21-2.19-.21-.93-.6-1.5-.36-.57-.87-.81-.51-.27-1.08-.27-.75 0-1.56.42-.78.39-1.5 1.11t-1.32 1.74a9.5 9.5 0 0 0-.9 2.16v7.38q0 .93.21 1.29.21.33.72.33v.18h-4.17v-.18q.54 0 .72-.33.21-.36.21-1.29zm23.036 3.96q2.67 0 3.9 1.5t1.23 4.77v7.77q0 .96.21 1.29t.72.33v.18h-3.12v-3.96q-1.05 1.92-2.61 3.03t-3.33 1.11q-.93 0-1.71-.3-.78-.33-1.38-.87-.57-.57-.9-1.32t-.33-1.62q0-2.31 2.49-4.08 2.49-1.8 7.65-2.64-.09-2.37-.93-3.48t-2.52-1.11q-1.71 0-3.12 1.11-1.38 1.11-2.25 3.18h-.18v-2.4q1.05-1.17 2.67-1.83 1.65-.66 3.51-.66m2.82 5.85q-3.99.69-5.88 2.28-1.86 1.56-1.86 3.69 0 1.44.72 2.25.75.78 1.98.78 1.47 0 2.82-1.08t2.22-2.94zm10.45 13.62q.48.09 1.02.18t1.14.09q1.05 0 1.98-.45.96-.45 1.5-1.8l.75-1.92-5.34-13.38q-.36-.9-.69-1.35-.33-.48-.99-.48v-.18h4.86v.18q-.81 0-.9.54-.06.51.27 1.29l4.05 10.26 4.02-10.23q.15-.39.24-.72t.06-.57q0-.27-.18-.42-.15-.15-.51-.15v-.18h2.61v.18q-.48 0-.81.57-.33.54-.69 1.41l-6.03 15.3q-.48 1.26-1.23 2.07t-1.62 1.26q-.84.45-1.77.63-.9.18-1.74.18zm21.531-19.47q1.53 0 2.85.63 1.32.6 2.28 1.68.99 1.08 1.53 2.58.54 1.47.54 3.21 0 1.71-.54 3.18-.54 1.44-1.5 2.52-.93 1.05-2.25 1.65-1.29.57-2.85.57t-2.91-.6q-1.32-.6-2.28-1.65a8 8 0 0 1-1.5-2.52q-.54-1.47-.54-3.21t.54-3.21 1.5-2.55 2.25-1.68q1.32-.6 2.88-.6m.03.57q-1.11 0-2.01.54-.87.51-1.5 1.47t-.96 2.34q-.33 1.35-.33 3.06t.33 3.09q.36 1.38.99 2.37.63.96 1.5 1.5.9.51 2.01.51 1.08 0 1.95-.51.9-.54 1.5-1.5.63-.96.96-2.31.33-1.38.33-3.09t-.33-3.09-.96-2.34q-.63-.99-1.53-1.5-.87-.54-1.95-.54m15.905-.57q1.02 0 1.95.27.93.24 1.71.72l3.54-1.02.06.06v1.62h-.06l-3.21-.45q1.05.72 1.65 1.74.63 1.02.63 2.28 0 1.08-.48 1.98t-1.32 1.59q-.84.66-1.95 1.05-1.11.36-2.37.36-2.19 0-3.87-1.08-.54.45-.87.96-.33.48-.33.9 0 1.2 3.27 1.38l4.53.27q4.38.27 4.38 3.51 0 1.26-.63 2.31-.6 1.08-1.68 1.86-1.05.78-2.52 1.2-1.44.45-3.15.45-1.35 0-2.52-.3-1.17-.27-2.01-.81t-1.32-1.29a3.05 3.05 0 0 1-.48-1.68q0-2.22 2.79-3.66-1.02-.33-1.62-.93t-.6-1.41q0-.72.54-1.47.57-.75 1.8-1.59a5.4 5.4 0 0 1-1.44-1.65q-.51-.96-.51-2.1 0-1.08.48-2.01t1.32-1.59q.84-.69 1.92-1.08 1.11-.39 2.37-.39m.06.57q-1.74 0-2.82 1.2-1.05 1.17-1.05 3.33 0 2.19 1.08 3.36t2.85 1.17 2.82-1.14 1.05-3.3q0-2.19-1.08-3.39-1.08-1.23-2.85-1.23m-3.75 13.8q-1.8 1.29-1.8 3.06 0 .87.42 1.59.42.75 1.14 1.26t1.68.78q.99.3 2.1.3 1.23 0 2.28-.33 1.08-.33 1.86-.93.81-.57 1.26-1.35.48-.78.48-1.65 0-1.05-.69-1.59t-2.19-.63l-5.31-.33q-.69-.06-1.23-.18m20.278-14.37q2.67 0 3.9 1.5t1.23 4.77v7.77q0 .96.21 1.29t.72.33v.18h-3.12v-3.96q-1.05 1.92-2.61 3.03t-3.33 1.11q-.93 0-1.71-.3-.78-.33-1.38-.87-.57-.57-.9-1.32t-.33-1.62q0-2.31 2.49-4.08 2.49-1.8 7.65-2.64-.09-2.37-.93-3.48t-2.52-1.11q-1.71 0-3.12 1.11-1.38 1.11-2.25 3.18h-.18v-2.4q1.05-1.17 2.67-1.83 1.65-.66 3.51-.66m2.82 5.85q-3.99.69-5.88 2.28-1.86 1.56-1.86 3.69 0 1.44.72 2.25.75.78 1.98.78 1.47 0 2.82-1.08t2.22-2.94z"/></g></g></g><defs><clipPath id="a"><path fill="#fff" d="M.65 0h228v60H.65z"/></clipPath><clipPath id="b"><path fill="#fff" d="M.65 0h228v60H.65z"/></clipPath><clipPath id="c"><path fill="#fff" d="M.65 0h228v60H.65z"/></clipPath></defs></svg>
